X:1
T: Uncle Ed's
R: jig
C: Rick Gagne
N: 2002 on tenor banjo
M: 6/8
Q: 1/4=165
K: Ador
G | "Am"EAG ABc | "G"BAB GAB | "Am"cBc ABA | "Em"Bef gfg |
"Am"ecA ABc | "G"BAB GAB | "Am"cBA "G"BAG | "Em"EAG "A5"A2 :|
E | "D"DEG "Am7"AGE | "C"GAG EDC | "D"DEG "Am7"AGE | "D"Dd^c dAB |
"F"cdc AcA | "C"GAG EDC | "D"DEG "Am7"AGE | "D"Dd^c d2 :|
